assets/svgs/illustration-remote-access.svg

<svg width="200" height="160" viewBox="0 0 200 160" fill="none" xmlns="http://www.w3.org/2000/svg" class="svg__illustration-remote-access">
<path d="M100.099 26.376V35.4823" stroke="#FFD600" stroke-width="1.5" class="svg__stroke--secondary-yellow-03"/>
<path d="M100.099 26.376V35.4823" stroke="#FFD600" stroke-width="1.5" class="svg__stroke--secondary-yellow-03"/>
<path d="M152.841 79.1167L143.734 79.1167" stroke="#FFD600" stroke-width="1.5" class="svg__stroke--secondary-yellow-03"/>
<path d="M137.392 116.41L130.953 109.971" stroke="#FFD600" stroke-width="1.5" class="svg__stroke--secondary-yellow-03"/>
<path d="M137.392 41.8247L130.952 48.2639" stroke="#FFD600" stroke-width="1.5" class="svg__stroke--secondary-yellow-03"/>
<path d="M100.099 122.752V131.858" stroke="#FFD600" stroke-width="1.5" class="svg__stroke--secondary-yellow-03"/>
<path d="M56.4634 79.1167L47.357 79.1167" stroke="#FFD600" stroke-width="1.5" class="svg__stroke--secondary-yellow-03"/>
<path d="M69.2427 48.262L62.8035 41.8228" stroke="#FFD600" stroke-width="1.5" class="svg__stroke--secondary-yellow-03"/>
<path d="M69.2427 109.972L62.8035 116.411" stroke="#FFD600" stroke-width="1.5" class="svg__stroke--secondary-yellow-03"/>
<circle cx="100.1" cy="79.8752" r="39.4697" stroke="#0B6AB7" stroke-width="1.5" class="svg__stroke--secondary-yellow-03"/>
<path d="M119.082 79.8749C119.082 90.892 116.89 100.829 113.38 107.984C109.846 115.188 105.106 119.345 100.102 119.345C95.0982 119.345 90.3579 115.188 86.8238 107.984C83.3138 100.829 81.1216 90.892 81.1216 79.8749C81.1216 68.8578 83.3138 58.9207 86.8238 51.7657C90.3579 44.5616 95.0982 40.4053 100.102 40.4053C105.106 40.4053 109.846 44.5616 113.38 51.7657C116.89 58.9207 119.082 68.8578 119.082 79.8749Z" stroke="#0B6AB7" stroke-width="1.5" class="svg__stroke--primary-blue-03"/>
<path d="M100.099 40.4141V117.059" stroke="#00E0E0" stroke-width="1.5" class="svg__stroke--help-green-03"/>
<path d="M138.423 78.7366L61.7783 78.7366" stroke="#00E0E0" stroke-width="1.5" class="svg__stroke--help-green-03"/>
<path d="M100.076 16.1611L145.197 34.8505L163.886 79.9705L145.197 125.091L100.076 143.78L54.9564 125.091L36.2671 79.9705L54.9564 34.8505L100.076 16.1611Z" stroke="#0B6AB7" stroke-width="1.5" class="svg__stroke--primary-blue-03"/>
<path d="M100.076 16.1611L145.197 34.8505L163.886 79.9705L145.197 125.091L100.076 143.78L54.9564 125.091L36.2671 79.9705L54.9564 34.8505L100.076 16.1611Z" stroke="#0B6AB7" stroke-width="1.5" class="svg__stroke--help-green-03"/>
<path d="M100.103 22.9515C104.792 22.9515 108.594 19.1498 108.594 14.4601C108.594 9.77046 104.792 5.96875 100.103 5.96875C95.413 5.96875 91.6113 9.77046 91.6113 14.4601C91.6113 19.1498 95.413 22.9515 100.103 22.9515Z" fill="#0AA5FF" stroke="white" stroke-width="1.5" class="svg__fill--default-cyan-02 svg__stroke--white"/>
<ellipse cx="146.283" cy="33.5888" rx="7.74135" ry="7.74136" transform="rotate(45 146.283 33.5888)" fill="#0AA5FF" stroke="white" stroke-width="1.5" class="svg__fill--default-cyan-02 svg__stroke--white"/>
<path d="M156.922 79.7682C156.922 84.4579 160.723 88.2596 165.413 88.2596C170.103 88.2596 173.904 84.4579 173.904 79.7682C173.904 75.0786 170.103 71.2769 165.413 71.2769C160.723 71.2769 156.922 75.0786 156.922 79.7682Z" fill="#0AA5FF" stroke="white" stroke-width="1.5" class="svg__fill--default-cyan-02 svg__stroke--white"/>
<ellipse cx="146.285" cy="125.95" rx="7.74136" ry="7.74136" transform="rotate(135 146.285 125.95)" fill="#0AA5FF" stroke="white" stroke-width="1.5" class="svg__fill--default-cyan-02 svg__stroke--white"/>
<path d="M100.103 153.573C104.792 153.573 108.594 149.771 108.594 145.081C108.594 140.392 104.792 136.59 100.103 136.59C95.413 136.59 91.6113 140.392 91.6113 145.081C91.6113 149.771 95.413 153.573 100.103 153.573Z" fill="#0AA5FF" stroke="white" stroke-width="1.5" class="svg__fill--default-cyan-02 svg__stroke--white"/>
<ellipse cx="53.9229" cy="125.952" rx="7.74135" ry="7.74135" transform="rotate(45 53.9229 125.952)" fill="#0AA5FF" stroke="white" stroke-width="1.5" class="svg__fill--default-cyan-02 svg__stroke--white"/>
<path d="M26.3015 79.7711C26.3015 84.4608 30.1032 88.2625 34.7928 88.2625C39.4825 88.2625 43.2842 84.4608 43.2842 79.7711C43.2842 75.0815 39.4825 71.2798 34.7928 71.2798C30.1032 71.2798 26.3015 75.0815 26.3015 79.7711Z" fill="#0AA5FF" stroke="white" stroke-width="1.5" class="svg__fill--default-cyan-02 svg__stroke--white"/>
<ellipse cx="53.9217" cy="33.5896" rx="7.74136" ry="7.74135" transform="rotate(135 53.9217 33.5896)" fill="#0AA5FF" stroke="white" stroke-width="1.5" class="svg__fill--default-cyan-02 svg__stroke--white"/>
</svg>

<svg width="200" height="160" viewBox="0 0 200 160" fill="none" xmlns="http://www.w3.org/2000/svg" class="svg__illustration-remote-access">
  <path d="M100.099 26.376v9.106M100.099 26.376v9.106M152.841 79.117h-9.107M137.392 116.41l-6.439-6.439M137.392 41.825l-6.439 6.439M100.099 122.752v9.106M56.463 79.117h-9.106M69.243 48.262l-6.44-6.44M69.243 109.972l-6.44 6.439" stroke="#FFD600" stroke-width="1.5" class="svg__stroke--secondary-yellow-03"/>
  <circle cx="100.1" cy="79.875" r="39.47" stroke="#0B6AB7" stroke-width="1.5" class="svg__stroke--primary-blue-03"/>
  <path d="M119.082 79.875c0 11.017-2.192 20.954-5.702 28.109-3.534 7.204-8.274 11.361-13.278 11.361-5.004 0-9.744-4.157-13.278-11.361-3.51-7.155-5.702-17.092-5.702-28.11 0-11.016 2.192-20.953 5.702-28.108 3.534-7.204 8.274-11.36 13.278-11.36 5.004 0 9.744 4.156 13.278 11.36 3.51 7.155 5.702 17.092 5.702 28.109Z" stroke="#0B6AB7" stroke-width="1.5" class="svg__stroke--primary-blue-03"/>
  <path d="M100.099 40.414v76.645M138.423 78.737H61.778" stroke="#00E0E0" stroke-width="1.5" class="svg__stroke--help-green-03"/>
  <path d="m100.076 16.161 45.12 18.69 18.69 45.12-18.69 45.12-45.12 18.689-45.12-18.689-18.689-45.12 18.69-45.12 45.119-18.69Z" stroke="#0B6AB7" stroke-width="1.5" class="svg__stroke--primary-blue-03"/>
  <path d="m100.076 16.161 45.12 18.69 18.69 45.12-18.69 45.12-45.12 18.689-45.12-18.689-18.689-45.12 18.69-45.12 45.119-18.69Z" stroke="#0B6AB7" stroke-width="1.5" class="svg__stroke--primary-blue-03"/>
  <path d="M100.103 22.951a8.491 8.491 0 1 0 0-16.982 8.491 8.491 0 0 0 0 16.982Z" fill="#0AA5FF" stroke="#fff" stroke-width="1.5" class="svg__stroke--white svg__fill--default-cyan-03"/>
  <circle cx="146.283" cy="33.589" transform="rotate(45 146.283 33.589)" fill="#0AA5FF" stroke="#fff" stroke-width="1.5" r="7.741" class="svg__stroke--white svg__fill--default-cyan-03"/>
  <path d="M156.922 79.768a8.49 8.49 0 1 0 16.982 0 8.49 8.49 0 1 0-16.982 0Z" fill="#0AA5FF" stroke="#fff" stroke-width="1.5" class="svg__stroke--white svg__fill--default-cyan-03"/>
  <circle cx="146.285" cy="125.95" transform="rotate(135 146.285 125.95)" fill="#0AA5FF" stroke="#fff" stroke-width="1.5" r="7.741" class="svg__stroke--white svg__fill--default-cyan-03"/>
  <path d="M100.103 153.573a8.492 8.492 0 1 0-.002-16.984 8.492 8.492 0 0 0 .002 16.984Z" fill="#0AA5FF" stroke="#fff" stroke-width="1.5" class="svg__stroke--white svg__fill--default-cyan-03"/>
  <circle cx="53.923" cy="125.952" transform="rotate(45 53.923 125.952)" fill="#0AA5FF" stroke="#fff" stroke-width="1.5" r="7.741" class="svg__stroke--white svg__fill--default-cyan-03"/>
  <path d="M26.301 79.771a8.491 8.491 0 1 0 16.983 0 8.491 8.491 0 0 0-16.983 0Z" fill="#0AA5FF" stroke="#fff" stroke-width="1.5" class="svg__stroke--white svg__fill--default-cyan-03"/>
  <circle cx="53.922" cy="33.59" transform="rotate(135 53.922 33.59)" fill="#0AA5FF" stroke="#fff" stroke-width="1.5" r="7.741" class="svg__stroke--white svg__fill--default-cyan-03"/>
</svg>
